assets/img/braze_icons/piggy-bank-01.svg

<svg fill="none" height="24" viewBox="0 0 24 24" width="24" xmlns="http://www.w3.org/2000/svg"><g fill="#801ed7"><path d="m11.5 9c1.933 0 3.5-1.567 3.5-3.5s-1.567-3.5-3.5-3.5-3.5 1.567-3.5 3.5 1.567 3.5 3.5 3.5z"/><path d="m6.97551 8.62801c-.23867-.34457-.35801-.51686-.48655-.57378-.11539-.05109-.23687-.05734-.35689-.01836-.13371.04343-.23886.16611-.44916.41147-.84389.98461-1.41947 2.20676-1.61206 3.55286h-.07085c-.55228 0-1-.4477-1-1 0-.3689.19922-.6924.50073-.8668.47806-.27659.64142-.88832.36488-1.36638-.27655-.47806-.88828-.64142-1.36634-.36488-.89409.5172-1.49927 1.48636-1.49927 2.59806 0 1.6568 1.34315 3 3 3h.07091c.21594 1.5082.91293 2.8621 1.92903 3.899l-.00001 2.3242c-.00004.1191-.0001.2613.01014.3867.01187.1452.04231.3532.15336.5711.14381.2823.37328.5117.65552.6555.21795.1111.42594.1415.57116.1534.12528.0102.26752.0102.38661.0101h1.94637c.11909.0001.26139.0001.38671-.0101.1452-.0119.3532-.0423.5711-.1534.2823-.1438.5117-.3732.6555-.6555.1111-.2179.1415-.4259.1534-.5711.0102-.1254.0102-.2676.0101-.3867v-.2232h1.0001l-.0001.2228c0 .1191-.0001.2614.0102.3867.0118.1452.0423.3532.1533.5712.1439.2822.3733.5117.6556.6555.2179.111.4259.1415.5711.1533.1253.0103.2675.0102.3866.0102h1.9465c.1191 0 .2614.0001.3867-.0102.1452-.0118.3532-.0423.5711-.1533.2822-.1438.5117-.3733.6555-.6555.1111-.218.1415-.426.1534-.5712.0102-.1253.0102-.2676.0101-.3867v-.897c1.1062-.5254 2.0517-1.3316 2.7452-2.3261h.478c.1191 0 .2613.0001.3867-.0102.1452-.0118.3532-.0423.5711-.1533.2823-.1438.5117-.3733.6555-.6555.1111-.218.1415-.426.1534-.5712.0102-.1253.0102-.2675.0101-.3866v-3.4595c.0001-.1134.0001-.2489-.0092-.3684-.0107-.1382-.0383-.3364-.1394-.5462-.1474-.3061-.3944-.5531-.7005-.7006-.2098-.101-.408-.1286-.5462-.1393-.0892-.007-.1873-.0087-.2785-.00912-.3357-.70674-.7858-1.34767-1.3262-1.8991v-1.06858c.0001-.15482.0001-.33008-.0133-.48082-.0148-.16644-.0536-.42377-.2116-.67882-.1971-.31799-.5058-.55089-.8657-.65299-.2886-.08188-.5467-.04844-.7108-.01698-.1487.02849-.3171.07669-.466.11927l-.1558.04452c-.205.05856-.3075.08785-.3796.14063-.0696.05096-.1122.10119-.151.17822-.0403.07977-.0541.20144-.0819.44478-.3126 2.74082-2.6398 4.86989-5.4643 4.86989-1.8755 0-3.53174-.9387-4.52449-2.37199z"/></g></svg>

<svg width="24" height="24" viewBox="0 0 24 24" fill="none" xmlns="http://www.w3.org/2000/svg">
<path d="M11.5 9C13.433 9 15 7.433 15 5.5C15 3.567 13.433 2 11.5 2C9.567 2 8 3.567 8 5.5C8 7.433 9.567 9 11.5 9Z" fill="#801ED7"/>
<path d="M6.97551 8.62801C6.73684 8.28344 6.6175 8.11115 6.48896 8.05423C6.37357 8.00314 6.25209 7.99689 6.13207 8.03587C5.99836 8.0793 5.89321 8.20198 5.68291 8.44734C4.83902 9.43195 4.26344 10.6541 4.07085 12.0002H4C3.44772 12.0002 3 11.5525 3 11.0002C3 10.6313 3.19922 10.3078 3.50073 10.1334C3.97879 9.85681 4.14215 9.24508 3.86561 8.76702C3.58906 8.28896 2.97733 8.1256 2.49927 8.40214C1.60518 8.91934 1 9.8885 1 11.0002C1 12.657 2.34315 14.0002 4 14.0002H4.07091C4.28685 15.5084 4.98384 16.8623 5.99994 17.8992L5.99993 20.2234C5.99989 20.3425 5.99983 20.4847 6.01007 20.6101C6.02194 20.7553 6.05238 20.9633 6.16343 21.1812C6.30724 21.4635 6.53671 21.6929 6.81895 21.8367C7.0369 21.9478 7.24489 21.9782 7.39011 21.9901C7.51539 22.0003 7.65763 22.0003 7.77672 22.0002H9.72309C9.84218 22.0003 9.98448 22.0003 10.1098 21.9901C10.255 21.9782 10.463 21.9478 10.6809 21.8367C10.9632 21.6929 11.1926 21.4635 11.3364 21.1812C11.4475 20.9633 11.4779 20.7553 11.4898 20.6101C11.5 20.4847 11.5 20.3425 11.4999 20.2234L11.4999 20.0002H12.5L12.4999 20.223C12.4999 20.3421 12.4998 20.4844 12.5101 20.6097C12.5219 20.7549 12.5524 20.9629 12.6634 21.1809C12.8073 21.4631 13.0367 21.6926 13.319 21.8364C13.5369 21.9474 13.7449 21.9779 13.8901 21.9897C14.0154 22 14.1576 21.9999 14.2767 21.9999H16.2232C16.3423 21.9999 16.4846 22 16.6099 21.9897C16.7551 21.9779 16.9631 21.9474 17.181 21.8364C17.4632 21.6926 17.6927 21.4631 17.8365 21.1809C17.9476 20.9629 17.978 20.7549 17.9899 20.6097C18.0001 20.4844 18.0001 20.3421 18 20.223L18 19.326C19.1062 18.8006 20.0517 17.9944 20.7452 16.9999L21.2232 16.9999C21.3423 16.9999 21.4845 17 21.6099 16.9897C21.7551 16.9779 21.9631 16.9474 22.181 16.8364C22.4633 16.6926 22.6927 16.4631 22.8365 16.1809C22.9476 15.9629 22.978 15.7549 22.9899 15.6097C23.0001 15.4844 23.0001 15.3422 23 15.2231V11.7636C23.0001 11.6502 23.0001 11.5147 22.9908 11.3952C22.9801 11.257 22.9525 11.0588 22.8514 10.849C22.704 10.5429 22.457 10.2959 22.1509 10.1484C21.9411 10.0474 21.7429 10.0198 21.6047 10.0091C21.5155 10.0021 21.4174 10.0004 21.3262 9.99998C20.9905 9.29324 20.5404 8.65231 20 8.10088L20 7.0323C20.0001 6.87748 20.0001 6.70222 19.9867 6.55148C19.9719 6.38504 19.9331 6.12771 19.7751 5.87266C19.578 5.55467 19.2693 5.32177 18.9094 5.21967C18.6208 5.13779 18.3627 5.17123 18.1986 5.20269C18.0499 5.23118 17.8815 5.27938 17.7326 5.32196L17.5768 5.36648C17.3718 5.42504 17.2693 5.45433 17.1972 5.50711C17.1276 5.55807 17.085 5.6083 17.0462 5.68533C17.0059 5.7651 16.9921 5.88677 16.9643 6.13011C16.6517 8.87093 14.3245 11 11.5 11C9.6245 11 7.96826 10.0613 6.97551 8.62801Z" fill="#801ED7"/>
</svg>
